img/skills/Git.svg

<svg width="46" height="55" viewBox="0 0 46 55" fill="none" xmlns="http://www.w3.org/2000/svg">
<path d="M23 2L1 15V40.5L23 53L45 40.5V15L23 2Z" fill="#3D2D00" stroke="#F05033" stroke-width="2"/>
<path d="M9.00835 25.3261L17.9192 16.3998L20.5246 19.0207C20.1546 20.3311 20.7558 21.7648 21.9583 22.4586V30.9994C21.0333 31.5236 20.4167 32.5257 20.4167 33.6665C20.4167 34.4842 20.7415 35.2685 21.3198 35.8467C21.898 36.425 22.6823 36.7498 23.5 36.7498C24.3178 36.7498 25.102 36.425 25.6803 35.8467C26.2585 35.2685 26.5833 34.4842 26.5833 33.6665C26.5833 32.5257 25.9667 31.5236 25.0417 30.9994V23.5069L28.2329 26.729C28.125 26.9602 28.125 27.2223 28.125 27.4998C28.125 28.3176 28.4499 29.1018 29.0281 29.6801C29.6063 30.2583 30.3906 30.5832 31.2083 30.5832C32.0261 30.5832 32.8104 30.2583 33.3886 29.6801C33.9668 29.1018 34.2917 28.3176 34.2917 27.4998C34.2917 26.6821 33.9668 25.8978 33.3886 25.3196C32.8104 24.7413 32.0261 24.4165 31.2083 24.4165C30.9308 24.4165 30.6688 24.4165 30.4375 24.5244L26.4754 20.5623C26.6669 19.8483 26.5926 19.089 26.2666 18.4256C25.9405 17.7621 25.3848 17.2395 24.7025 16.9548C24.0396 16.7082 23.3458 16.6465 22.7292 16.8161L20.1083 14.2107L21.3263 13.0082C22.5288 11.7902 24.4713 11.7902 25.6738 13.0082L37.9917 25.3261C39.2096 26.5286 39.2096 28.4711 37.9917 29.6736L25.6738 41.9915C24.4713 43.2094 22.5288 43.2094 21.3263 41.9915L9.00835 29.6736C7.79043 28.4711 7.79043 26.5286 9.00835 25.3261Z" fill="#F05033"/>
</svg>

<svg xmlns="http://www.w3.org/2000/svg" width="46" height="55" fill="none"><path fill="#3D2D00" stroke="#F05033" stroke-width="2" d="M23 2 1 15v25.5L23 53l22-12.5V15L23 2z"/><path fill="#F05033" d="M9.008 25.326 17.92 16.4l2.606 2.62c-.37 1.311.23 2.745 1.433 3.439v8.54a3.083 3.083 0 1 0 4.625 2.667 3.06 3.06 0 0 0-1.541-2.667v-7.492l3.19 3.222c-.107.231-.107.493-.107.77a3.084 3.084 0 1 0 3.083-3.082c-.277 0-.54 0-.77.107l-3.963-3.962a3.052 3.052 0 0 0-1.773-3.607c-.662-.247-1.356-.308-1.973-.139l-2.62-2.605 1.217-1.203a3.043 3.043 0 0 1 4.348 0l12.318 12.318a3.043 3.043 0 0 1 0 4.348L25.674 41.992a3.043 3.043 0 0 1-4.348 0L9.008 29.674a3.043 3.043 0 0 1 0-4.348z"/></svg>
